X:1
T:He's Got the Whole World in His Hands
C:Traditional (American)
M:4/4
L:1/4
K:G
Q:1/4=108

g a b a | g a b c' | d' c' b a | g4 |
g a b a | g a b c' | d' c' b a | g4 |
d' d' c' b | a g a g | b c' b a | g4 |
a b c' b | a g a b | c' b a g | g4 |
w: He's got the whole world in His hands
w: He's got the whole world in His hands
w: He's got the whole world whole world whole world
w: In His hands in His hands in His hands
